astro/public/img/icons/single-page-app.svg

<?xml version="1.0" encoding="UTF-8"?>
<svg width="63px" height="63px" viewBox="0 0 63 63" version="1.1" xmlns="http://www.w3.org/2000/svg" xmlns:xlink="http://www.w3.org/1999/xlink">
    <title>single-page-app</title>
    <defs>
        <circle id="path-1" cx="29.5" cy="29.5" r="29.5"></circle>
        <filter x="-5.9%" y="-4.2%" width="111.9%" height="111.9%" filterUnits="objectBoundingBox" id="filter-2">
            <feMorphology radius="0.5" operator="dilate" in="SourceAlpha" result="shadowSpreadOuter1"></feMorphology>
            <feOffset dx="0" dy="1" in="shadowSpreadOuter1" result="shadowOffsetOuter1"></feOffset>
            <feGaussianBlur stdDeviation="0.5" in="shadowOffsetOuter1" result="shadowBlurOuter1"></feGaussianBlur>
            <feColorMatrix values="0 0 0 0 0   0 0 0 0 0   0 0 0 0 0  0 0 0 0.11324369 0" type="matrix" in="shadowBlurOuter1"></feColorMatrix>
        </filter>
        <polygon id="path-3" points="0 38.1764706 38.1764706 38.1764706 38.1764706 0 0 0"></polygon>
        <linearGradient x1="97.8353838%" y1="12.6156803%" x2="0%" y2="85.513055%" id="linearGradient-5">
            <stop stop-color="#000000" offset="0%"></stop>
            <stop stop-color="#6366F1" offset="100%"></stop>
        </linearGradient>
        <linearGradient x1="40.1583279%" y1="0%" x2="73.5380926%" y2="83.2445694%" id="linearGradient-6">
            <stop stop-color="#6366F1" offset="0%"></stop>
            <stop stop-color="#000000" offset="100%"></stop>
        </linearGradient>
        <linearGradient x1="32.9968296%" y1="21.6373166%" x2="72.7260176%" y2="77.5699791%" id="linearGradient-7">
            <stop stop-color="#6366F1" offset="0%"></stop>
            <stop stop-color="#000000" offset="100%"></stop>
        </linearGradient>
    </defs>
    <g id="Docs" stroke="none" stroke-width="1" fill="none" fill-rule="evenodd">
        <g id="quickstart-secondary-page" transform="translate(-701.000000, -1319.000000)">
            <g id="single-page-app" transform="translate(703.000000, 1320.000000)">
                <g id="Oval-Copy-2">
                    <use fill="black" fill-opacity="1" filter="url(#filter-2)" xlink:href="#path-1"></use>
                    <use fill="#F1F5F9" fill-rule="evenodd" xlink:href="#path-1"></use>
                </g>
                <g id="browser" transform="translate(11.105882, 11.105882)">
                    <g id="g2446-Clipped" transform="translate(19.088235, 19.088235) scale(-1, 1) rotate(-180.000000) translate(-19.088235, -19.088235) ">
                        <mask id="mask-4" fill="white">
                            <use xlink:href="#path-3"></use>
                        </mask>
                        <g id="path2448"></g>
                        <g id="g2446" mask="url(#mask-4)">
                            <g transform="translate(1.124789, 3.555452)">
                                <g id="g2452" stroke-linecap="round" stroke-linejoin="round">
                                    <path d="M33.3338822,0 L2.59302492,0 C1.16095989,0 7.45634187e-06,1.16087787 7.45634187e-06,2.5929429 L7.45634187e-06,28.4725635 C7.45634187e-06,29.9046286 1.16095989,31.065581 2.59302492,31.065581 L33.3338822,31.065581 C34.7660218,31.065581 35.9268997,29.9046286 35.9268997,28.4725635 L35.9268997,2.5929429 C35.9268997,1.16087787 34.7660218,0 33.3338822,0 Z M35.9268922,22.3470011 L0,22.3470011" id="Combined-Shape" stroke="url(#linearGradient-5)" stroke-width="2.23999994"></path>
                                </g>
                                <g id="g2456" transform="translate(0.000000, 22.208178)"></g>
                                <g id="g2460" transform="translate(3.370900, 25.463206)">
                                    <path d="M1.12590763,2.25174069 C1.74769198,2.25174069 2.25174069,1.74761742 2.25174069,1.12583307 C2.25174069,0.504048713 1.74769198,0 1.12590763,0 C0.504123277,0 0,0.504048713 0,1.12583307 C0,1.74761742 0.504123277,2.25174069 1.12590763,2.25174069 M5.70380331,2.25174069 C6.32558766,2.25174069 6.82963637,1.74761742 6.82963637,1.12583307 C6.82963637,0.504048713 6.32558766,0 5.70380331,0 C5.08201896,0 4.57789568,0.504048713 4.57789568,1.12583307 C4.57789568,1.74761742 5.08201896,2.25174069 5.70380331,2.25174069 M10.4891866,2.25174069 C11.110971,2.25174069 11.6150197,1.74761742 11.6150197,1.12583307 C11.6150197,0.504048713 11.110971,0 10.4891866,0 C9.86740226,0 9.36327899,0.504048713 9.36327899,1.12583307 C9.36327899,1.74761742 9.86740226,2.25174069 10.4891866,2.25174069" id="Combined-Shape" fill="#4338CA" fill-rule="nonzero"></path>
                                </g>
                                <g id="g2464" transform="translate(7.948796, 25.463206)"></g>
                                <g id="g2468" transform="translate(12.734179, 25.463206)"></g>
                            </g>
                        </g>
                    </g>
                </g>
                <g id="coding-copy" transform="translate(21.517647, 27.070588)" fill-rule="nonzero" stroke-width="0.7">
                    <path d="M17.862476,6.81657942 L13.6890621,2.32448581 C13.4325593,2.04809886 13.0043966,2.0354935 12.7323492,2.29630279 C12.4607248,2.55689722 12.4481059,2.9921046 12.7048202,3.26827668 L16.4399199,7.28824209 L12.7048202,11.308673 C12.4481059,11.5848451 12.4607248,12.0198376 12.7323492,12.2806469 C12.8631914,12.4060202 13.0303394,12.4681159 13.196853,12.4681159 C13.3766553,12.4681159 13.5562108,12.3957067 13.6890973,12.2528936 L17.8625113,7.76058516 C18.1085805,7.49544277 18.1085805,7.08150694 17.862476,6.81657942 Z M10.1184315,0.00785612447 C9.74913373,-0.0489754489 9.40352289,0.208610882 9.34712541,0.583799536 L7.36193391,13.7850542 C7.30553643,14.1604577 7.55932511,14.5113667 7.92883439,14.5686639 C7.96358934,14.573928 7.99785081,14.5764706 8.03193604,14.5764706 C8.36062764,14.5764706 8.64892453,14.3328504 8.7001405,13.9927204 L10.685332,0.791465757 C10.7417295,0.416026429 10.4879408,0.0651532368 10.1184315,0.00785612447 Z" id="Combined-Shape" stroke="url(#linearGradient-7)" fill="url(#linearGradient-6)"></path>
                    <path d="M5.3424457,11.3084582 L1.6075927,7.28824209 L5.3424457,3.26806182 C5.59894851,2.99188974 5.58654106,2.55664655 5.31470518,2.29608793 C5.04308079,2.0354935 4.6144599,2.04809886 4.35799233,2.32427095 L0.184578396,6.81636455 C-0.061526132,7.08129208 -0.061526132,7.49544277 0.184578396,7.7604061 L4.35820383,12.2527146 C4.49130189,12.3959574 4.6706459,12.4681517 4.85044813,12.4681517 C5.01692646,12.4681517 5.18410975,12.4058053 5.31470518,12.2804321 C5.5867878,12.0198376 5.59894851,11.5846302 5.3424457,11.3084582 Z" id="Path" stroke="#4338CA" fill="#4338CA"></path>
                </g>
            </g>
        </g>
    </g>
</svg>

<svg xmlns="http://www.w3.org/2000/svg" xmlns:xlink="http://www.w3.org/1999/xlink" width="63" height="63"><defs><linearGradient id="e" x1="97.835%" x2="0%" y1="12.616%" y2="85.513%"><stop offset="0%"/><stop offset="100%" stop-color="#6366F1"/></linearGradient><linearGradient id="f" x1="40.158%" x2="73.538%" y1="0%" y2="83.245%"><stop offset="0%" stop-color="#6366F1"/><stop offset="100%"/></linearGradient><linearGradient id="g" x1="32.997%" x2="72.726%" y1="21.637%" y2="77.57%"><stop offset="0%" stop-color="#6366F1"/><stop offset="100%"/></linearGradient><filter id="b" width="111.9%" height="111.9%" x="-5.9%" y="-4.2%" filterUnits="objectBoundingBox"><feMorphology in="SourceAlpha" operator="dilate" radius=".5" result="shadowSpreadOuter1"/><feOffset dy="1" in="shadowSpreadOuter1" result="shadowOffsetOuter1"/><feGaussianBlur in="shadowOffsetOuter1" result="shadowBlurOuter1" stdDeviation=".5"/><feColorMatrix in="shadowBlurOuter1" values="0 0 0 0 0 0 0 0 0 0 0 0 0 0 0 0 0 0 0.11324369 0"/></filter><circle id="a" cx="29.5" cy="29.5" r="29.5"/><path id="c" d="M0 38.176h38.176V0H0z"/></defs><g fill="none" fill-rule="evenodd"><g transform="translate(2 1)"><use xlink:href="#a" fill="#000" filter="url(#b)"/><use xlink:href="#a" fill="#F1F5F9"/></g><g transform="matrix(1 0 0 -1 13.106 50.282)"><mask id="d" fill="#fff"><use xlink:href="#c"/></mask><g mask="url(#d)"><path stroke="url(#e)" stroke-linecap="round" stroke-linejoin="round" stroke-width="2.24" d="M33.334 0H2.593A2.593 2.593 0 0 0 0 2.593v25.88a2.593 2.593 0 0 0 2.593 2.593h30.74a2.593 2.593 0 0 0 2.594-2.593V2.593A2.593 2.593 0 0 0 33.334 0Zm2.593 22.347H0" transform="translate(1.125 3.555)"/><path fill="#4338CA" fill-rule="nonzero" d="M5.622 31.27a1.126 1.126 0 1 0 0-2.251 1.126 1.126 0 0 0 0 2.251m4.577 0a1.126 1.126 0 1 0 0-2.251 1.126 1.126 0 0 0 0 2.251m4.786 0a1.126 1.126 0 1 0 0-2.251 1.126 1.126 0 0 0 0 2.251"/></g></g><g fill-rule="nonzero" stroke-width=".7"><path fill="url(#f)" stroke="url(#g)" d="M17.862 6.817 13.69 2.324a.669.669 0 0 0-.957-.028.695.695 0 0 0-.027.972l3.735 4.02-3.735 4.02a.695.695 0 0 0 .027.973.67.67 0 0 0 .957-.028l4.174-4.492a.696.696 0 0 0 0-.944ZM10.118.007a.68.68 0 0 0-.77.577L7.361 13.785a.686.686 0 0 0 .67.791.68.68 0 0 0 .668-.583L10.685.79a.686.686 0 0 0-.567-.783Z" transform="translate(23.518 28.07)"/><path fill="#4338CA" stroke="#4338CA" d="m28.86 39.379-3.735-4.02 3.735-4.02a.695.695 0 0 0-.028-.972.67.67 0 0 0-.956.028l-4.174 4.492a.696.696 0 0 0 0 .944l4.174 4.492a.67.67 0 0 0 .956.028.695.695 0 0 0 .028-.972Z"/></g></g></svg>
